!!! OTL: Berkowitz305
!!! Chapter: 1
!!! Section: III
!!! Page: 73
!!! Mode: 
!!! Encoder: DJB
**kern
*staff1
*I"Piano
=1-
*clefC3
*k[f#c#]
*D:
*M3/4
4r
4f#\
4g\
=2
4.a\
8g#\
[4a\
=3
4a\]
4b\
4a\
=4
4.g\
8f#\
[4g\
=5
4g\]
4e\
4f#\
=6
4g\
4a\
4b\
=7
4cc#\
4.b\
8cc#\
=8
2.a\
=9
4r
4dd\
4dd\
=10
4.dd\
8e\
4e\
=11
!!linebreak:original
4r
4dd\
4dd\
=12
4.dd\
8f#\
4f#\
=13
4r
4b\
4a\
=14
4.g\
8B/
4B/
=15
4c#\
4.f#\
8e\
=16
2.d\
=17
4r
4dd\
4dd\
=18
4.dd\
8e\
4e\
=19
4r
4dd\
4dd\
=20
4.dd\
8f#\
4f#\
=21
!!linebreak:original
4r
4b\
4a\
=22
4.g\
8B/
4B/
=23
4c#\
4.f#\
8e\
=24
4d\
4f#\
4a\
=25
2.dd\
==
*-
